X:1
T:Exalt the LORD, His Praise Proclaim
T:Text: Psalm 135:1-7, 19-21; vers. Psalter. 1887; rev. Psalter, 1912, alt. Tune: Franz J. Haydn, 1798
T:LMD CREATION www.hymnary.org//text/exalt_the_lord_his_praise_proclaim
T:Exalt the LORD, His Praise Proclaim
T:This hymn is in the public domain. You may freely use this score for personal and congregational worship. If you reproduce the score, please credit Hymnary.org as the source. 
T:This hymn is in the public domain. You may freely use this score for personal and congregational worship. If you reproduce the score, please credit Hymnary.org as the source. 
T:This hymn is in the public domain. You may freely use this score for personal and congregational worship. If you reproduce the score, please credit Hymnary.org as the source. 
Z:This hymn is in the public domain. You may freely use this score for personal and congregational worship. If you reproduce the score, please credit Hymnary.org as the source.
%%score ( 1 2 ) ( 3 4 )
L:1/8
M:2/2
K:G
V:1 treble nm="SOPRANO ALTO" snm="S. A."
V:2 treble 
V:3 bass nm="TENOR BASS" snm="T. B."
V:4 bass 
V:1
"^1""^2""^3" D2 | G6 G2 | A6 A2 | (B2 G2) (E2 A2) | (G4 F2) DE | (F2 G2) (A2 B2) | c6 B2 | %7
w: Ex-|alt the|LORD, his|praise * pro- *|claim; * all *|you * his *|ser- vants,|
w: I|know the|LORD is|high * in *|state; * a- *|bove * all *|gods our|
w: Ex-|alt the|LORD, his|praise * pro- *|claim; * all *|you * his *|ser- vants,|
 (B2 A2) (G2 F2) | G6 D2 | G6 G2 | A6 A2 | (B2 G2) (E2 A2) | (G4 F2) DE |1 (F2 G2) (A2 B2) | %14
w: praise * his *|name, who|in the|LORD's house|ev- * er *|stand * and *|hum- * bly *|
w: Lord * is *|great. The|LORD per-|forms what|he * de- *|crees, * in *|heaven * and *|
w: praise * his *|name, who|in the|LORD's house|ev- * er *|stand * and *|hum- * bly *|
 c6 B2 | (B2 A2) (G2 F2) | G6 D2 ||"^Page 2" D6 D2 | G6 G2 | %19
w: serve at|his * com- *|mand. The|LORD is|good, his|
w: earth, in|depths * and *|seas. He|makes the|va- pors|
w: serve at|his * com- *|mand. For|ev- er|praise and|
 A6"^Exalt the LORD, His Praise Proclaim" A2 | B6 A2 | (B2 c2 d2) B2 | (A2 B2 c2) A2 | %23
w: praise pro-|claim; since|it * * is|pleas- * * ant,|
w: to as-|cend in|clouds * * from|earth's * * re-|
w: bless his|name, and|in * * the|church * * his|
 (B2 c2 d2) B2 | A6 D2 | D6 D2 | G6 G2 | A6 A2 | B6 A2 | (B2 c2 d2) B2 | (A2 B2 c2) A2 | G4 F4 | %32
w: praise * * his|name. His|peo- ple|for his|own he|takes and|his * * own|spe- * * cial|trea- sure|
w: mot- * * est|end; the|light- nings|flash at|his com-|mand; he|holds * * the|temp- * * est|in his|
w: praise * * pro-|claim. In|Zi- on|is his|dwell- ing|place; O|praise * * the|LORD, * * show|forth his|
 G6 x2 |] %33
w: makes.|
w: hand.|
w: grace.|
V:2
 D2 | B,6 D2 | D6 D2 | D4 E4 | D6 D2 | D4 D4 | D4 D4 | E4 (D2 C2) | B,6 D2 | B,6 D2 | D6 D2 | %11
 D4 E4 | D6 D2 |1 D4 D4 | D4 D4 | E4 (D2 C2) | B,6 D2 || D6 D2 | D6 D2 | D6 D2 | D6 D2 | D6 D2 | %22
 D6 D2 | D6 D2 | D6 D2 | D6 D2 | (D2 C2 D2) B,2 | D6 D2 | D6 D2 | D6 D2 | (E2 D2 C2) E2 | D4 C4 | %32
 B,6 x2 |] %33
V:3
 D,2 | D,6 G,2 | F,6 F,2 | G,4 (G,2 C2) | (B,4 A,2) F,G, | (A,2 G,2) (F,2 G,2) | A,4 G,4 | %7
 (E,2 A,2) (B,2 A,2) | G,6 D,2 | D,6 G,2 | F,6 F,2 | G,4 (G,2 C2) | (B,4 A,2) F,G, |1 %13
 (A,2 G,2) (F,2 G,2) | A,4 G,4 | (G,2 A,2) (B,2 A,2) | G,6 D,2 || D,6 D,2 | G,6 G,2 | F,6 F,2 | %20
 G,6 F,2 | (G,2 A,2 B,2) G,2 | (F,2 G,2 A,2) F,2 | (G,2 A,2 B,2) G,2 | F,6 F,2 | F,6 F,2 | %26
 G,6 G,2 | (F,2 G,2 A,2) F,2 | G,6 F,2 | G,6 G,2 | (E,2 ^G,2 A,2) A,2 | B,4 A,4 | G,6 x2 |] %33
V:4
 D,2 | G,,6 B,,2 | D,6 D,2 | (G,,2 B,,2) (C,2 A,,2) | D,6 D,2 | (C,2 B,,2) (A,,2 G,,2) | %6
 F,,4 G,,4 | C,4 D,4 | G,,6 D,2 | G,,6 B,,2 | D,6 D,2 | (G,,2 B,,2) (C,2 A,,2) | D,6 D,2 |1 %13
 (C,2 B,,2) (A,,2 G,,2) | F,,4 G,,4 | C,4 D,4 | G,,6 D,2 || D,6 D,2 | B,,6 B,,2 | D,6 D,2 | %20
 G,6 D,2 | D,6 D,2 | D,6 D,2 | D,6 D,2 | D,6 D,2 | (D,2 E,2 D,2) C,2 | (B,,2 A,,2 B,,2) G,,2 | %27
 (D,2 E,2 F,2) D,2 | G,6 D,2 | (G,,2 A,,2 B,,2) G,,2 | (C,2 B,,2 A,,2) C,2 | D,4 D,4 | G,,6 x2 |] %33

